X:1
T:Peaceful the Wondrous Night
T:E. G. Snelling
T:Peaceful the Wondrous Night
T:Public Domain
T:Public Domain
C:E. G. Snelling
Z:Public Domain
%%score ( 1 2 ) ( 3 4 )
L:1/8
M:3/4
K:Bb
V:1 treble 
V:2 treble 
V:3 bass 
V:4 bass 
V:1
 F2 G2 A2 | BA B4 | [Fd]2 [DB]2 [DG]2 | [EG]4 [EF]2 | F2 A2 B2 | c=B c4 | [Fe]2 [Ge]2 [Ae]2 | %7
w: 1.~Peace- ful the|Peace- ful and|der the sil-|v’ry light,|Gleam- ing a-|ly watch- ing|herds so low-|
w: 2.~Come with that|Come to the|in the cho-|rus grand,|Glo- ry to|the ho- ly|der- ful Stran-|
w: 3.~Sweet fa- vor,|Love’s trea- sure|ful- ly yield-|ing now,|Life’s joy- ful|the heav’n- ly|e- choes ring-|
 [Bd]4 z2 | F2 G2 A2 | BA B4 | [Fd]2 [Fe]2 [F=B]2 | [Ed]4 [Ec]2 | B2 G2 B2 | FG F4 | %14
w: ly,|O- ver the|Saw glo- ry’s|||||
w: ger,|Give to the|Glo- ry and|the star- ry|night, Spark-|ling with glo-|An- gels on|
w: ing,|Bless- ing and|Through end- less|||||
 [EG]2 [Ee]2 [EA]2 | [DB]4 z2 ||"^Refrain" [Fd]2 [Ec]2 [DB]2 | [EB]2 [EA]2 E2 | [EB]2 [EA]2 E2 | %19
w: |||||
w: Throng- ing the|sky;|Hail to that|star- ry night!|rous its sto-|
w: |||||
 [DG]4 [DF]2 | [DF]2 [DG]2 [DA]2 | [DB]2 [Dc]2 [Dd]2 | [=Ec]2 [EG]2 [Ed]2 | [FAc]4 z2 | %24
w: |||||
w: ry; Je-|sus the Prince|of Light, Came|from a- bove.||
w: |||||
 [Fd]2 [Ec]2 [DB]2 | [EB]2 [EA]2 E2 | [EB]2 [EA]2 E2 | [DG]4 [DF]2 | [Fd]2 [Fe]2 [Fd]2 | %29
w: |||||
w: |||||
w: |||||
 [Dd]2 [Dc]2 [EG]2 | [EA]2 [EB]2 [Ec]2 | [DB]4 z2 |] %32
w: |||
w: |||
w: |||
V:2
 F2 G2 A2 | BA B4 | x6 | x6 | F2 A2 B2 | c=B x4 | x6 | x6 | F2 G2 A2 | BA B4 | x6 | x6 | B2 x4 | %13
w: wond- rous night,|ho- ly, Un-|||far. Faith- ful-|there, Shep-|||hills so fair,|star * *||||
w: shep- herd band,|man- ger; Join|||God! Wor- ship|Child, Won-|||Un- de- filed,|laud. Hail to|||ry;|
w: thus to bow,|bring- ing, Grate-|||praise. Hear from|height, Glad|||pow’r and might,|days. * *||||
 FG F4 | x6 | x6 || x6 | x4 E2 | x6 | x6 | x6 | x6 | x6 | x6 | x6 | x4 E2 | x4 E2 | x6 | x6 | x6 | %30
w: |||||||||||||||||
w: wings of light,||||Wond-|||||||||||||
w: |||||||||||||||||
 x6 | x6 |] %32
w: ||
w: ||
w: ||
V:3
 B,,2 [F,B,D]2 [F,B,D]2 | D,2 ([F,B,D]2 [F,B,D]2) | B,,2 [F,B,]2 [F,B,]2 | (C,2 [F,A,]2) [F,A,]2 | %4
 F,,2 [F,A,CE]2 [F,A,CE]2 | A,,2 ([F,A,CE]2 [F,A,CE]2) | F,,2 [F,A,CE]2 [F,A,CE]2 | %7
 (B,,2 [F,B,D]2 [F,B,D]2) | B,,2 [F,B,D]2 [F,B,D]2 | D,2 ([F,B,D]2 [F,B,D]2) | %10
 G,,2 [F,G,=B,]2 [F,G,B,]2 | C,2 [E,G,C]2 [E,G,C]2 | =E,2 [G,^B,C]2 [G,B,C]2 | %13
 F,2 ([B,D]2 [B,D]2) | [E,B,]2 [C,C]2 [F,C]2 | [B,,B,]4 z2 || B,,2 [F,B,]2 [F,B,]2 | %17
 D,2 [F,A,]2 [F,A,]2 | F,,2 [F,A,]2 [F,A,]2 | (B,,2 [F,B,]2) [F,B,]2 | B,,2 [F,B,]2 [F,B,]2 | %21
 G,,2 [D,G,B,]2 [D,G,B,]2 | C,2 [G,B,C]2 [G,B,C]2 | (F,,2 [F,A,E]2 [F,A,E]2) | %24
 B,,2 [F,B,]2 [F,B,]2 | C,2 [F,A,]2 [F,A,]2 | F,,2 [F,A,]2 [F,A,]2 | (B,,2 [F,B,]2) [F,B,]2 | %28
 G,,2 [F,G,=B,]2 [F,G,B,]2 | C,2 [E,G,C]2 [E,G,C]2 | F,2 [A,C]2 [A,C]2 | [B,,B,]4 z2 |] %32
V:4
 B,,2 x4 | D,2 x4 | B,,2 x4 | C,2 x4 | F,,2 x4 | A,,2 x4 | F,,2 x4 | B,,2 x4 | B,,2 x4 | D,2 x4 | %10
 G,,2 x4 | C,2 x4 | =E,2 x4 | F,2 x4 | x6 | x6 || B,,2 x4 | D,2 x4 | F,,2 x4 | B,,2 x4 | B,,2 x4 | %21
 G,,2 x4 | C,2 x4 | F,,2 x4 | B,,2 x4 | C,2 x4 | F,,2 x4 | B,,2 x4 | G,,2 x4 | C,2 x4 | F,2 x4 | %31
 x6 |] %32

